X:1
T:Title
%%score { ( 1 3 ) | ( 2 4 ) }
L:1/8
M:2/4
K:F
V:1 treble nm="Grand Piano"
V:3 treble 
V:2 bass 
V:4 bass 
V:1
 z2 z[Q:1/4=85] C | Fc Ec | F F2 C | Fc Ec | F2 z c | [^Fd][FA] [Fd][Fc] | c B2 D | %7
 [B,^C][B,D] [=B,A]>[B,F] |[M:3/8] G3 |[M:1/8] c |[M:2/4] cA GF | .F2 B,c | cG c_A | A4 | FF EF | %15
 z .A3 | .[=B,D]2 [_B,G]2 |[M:3/8] [A,F]3 |] %18
V:2
 z2 z [F,A,] | [F,A,C][F,A,C] [F,B,C][F,B,C] | [F,A,C] [F,A,C]2 [F,A,] | %3
 [F,A,C][F,A,C] [F,B,C][F,B,C] | [F,A,C]2 z [F,A,F] | [D,A,][D,A,] [D,A,][D,D] | %6
 [G,DG] [G,DG]2[K:bass] [G,B,] | [G,,G,][G,,G,] [G,,G,]>[G,,G,] |[M:3/8] [C,E,C]3 |[M:1/8] z | %10
[M:2/4] F,,[C,F,A,] [C,F,A,][C,F,A,] | G,,[C,E,B,] [C,E,][C,E,B,] | C,,[C,E,B,] [C,E,B,][C,E,B,] | %13
 F,,[C,F,] .[C,F,]2 | F,,[C,F,A,] [C,F,A,][C,F,A,] | F,,[C,F,A,] [C,F,][C,F,A,] | z A .C,>F | %17
[M:3/8] [F,,C,]3 |] %18
V:3
 x4 | x4 | x4 | x4 | x4 | x4 | x4 | x4 |[M:3/8] x3 |[M:1/8] x |[M:2/4] x4 | z .E3 | x4 | z A, A,F | %14
 x4 | .c2 A,C | x4 |[M:3/8] x3 |] %18
V:4
 x4 | x4 | x4 | x4 | x4 | x4 | x3[K:bass] x | x4 |[M:3/8] x3 |[M:1/8] x |[M:2/4] x4 | x4 | x4 | %13
 x4 | x4 | x4 | G,,2 z C,, |[M:3/8] x3 |] %18

